modules/themify-icons/icons/paint-bucket.svg

<?xml version="1.0" encoding="utf-8"?>
<!-- Generated by IcoMoon.io -->
<!DOCTYPE svg PUBLIC "-//W3C//DTD SVG 1.1//EN" "http://www.w3.org/Graphics/SVG/1.1/DTD/svg11.dtd">
<svg version="1.1" xmlns="http://www.w3.org/2000/svg" xmlns:xlink="http://www.w3.org/1999/xlink" width="17" height="17" viewBox="0 0 17 17">
<g>
</g>
	<path d="M16.701 9.818l-8.868-8.924-0.134 0.133c-0.668-0.661-1.552-1.026-2.493-1.027 0 0 0 0-0.001 0-0.948 0-1.841 0.37-2.512 1.041-0.672 0.671-1.042 1.563-1.042 2.514 0 0.941 0.366 1.825 1.027 2.493l-2.208 2.209c-0.303 0.304-0.47 0.706-0.47 1.133 0 0.429 0.166 0.83 0.467 1.13l4.811 4.859c0.302 0.302 0.704 0.469 1.131 0.469 0.429 0 0.831-0.168 1.133-0.471l5.558-5.558 3.601-0.001zM2.651 3.554c0-0.682 0.266-1.323 0.749-1.806 0.483-0.482 1.123-0.748 1.805-0.748 0.001 0 0.001 0 0.001 0 0.674 0 1.306 0.262 1.786 0.734l-3.606 3.607c-0.473-0.481-0.735-1.113-0.735-1.787zM6.833 14.671c-0.113 0.113-0.265 0.177-0.425 0.177s-0.311-0.062-0.422-0.174l-3.636-3.674h8.154l-3.671 3.671zM11.504 10h-10.145l-0.183-0.186c-0.114-0.113-0.176-0.263-0.176-0.423 0-0.161 0.063-0.312 0.177-0.427l6.654-6.654 6.468 6.509-1.614 0.001-1.181 1.18zM15.688 11.959l-0.407-0.604-0.418 0.598c-0.319 0.457-1.363 2.011-1.363 2.798 0 0.965 0.785 1.75 1.75 1.75s1.75-0.786 1.75-1.751c0-0.782-1.004-2.334-1.312-2.791zM15.25 15.5c-0.413 0-0.75-0.337-0.75-0.75 0-0.24 0.349-0.92 0.766-1.591 0.4 0.67 0.734 1.349 0.734 1.591 0 0.413-0.337 0.75-0.75 0.75z" fill="#000000" />
</svg>

<svg xmlns="http://www.w3.org/2000/svg" width="17" height="17" viewBox="0 0 17 17"><path d="M16.701 9.818L7.833.894l-.134.133A3.527 3.527 0 0 0 5.206 0h-.001c-.948 0-1.841.37-2.512 1.041a3.528 3.528 0 0 0-1.042 2.514c0 .941.366 1.825 1.027 2.493L.47 8.257C.167 8.561 0 8.963 0 9.39c0 .429.166.83.467 1.13l4.811 4.859a1.59 1.59 0 0 0 1.131.469 1.59 1.59 0 0 0 1.133-.471L13.1 9.819l3.601-.001zM2.651 3.554c0-.682.266-1.323.749-1.806A2.538 2.538 0 0 1 5.205 1h.001c.674 0 1.306.262 1.786.734L3.386 5.341a2.532 2.532 0 0 1-.735-1.787zm4.182 11.117a.6.6 0 0 1-.847.003L2.35 11h8.154l-3.671 3.671zM11.504 10H1.359l-.183-.186a.602.602 0 0 1 .001-.85L7.831 2.31l6.468 6.509-1.614.001L11.504 10zm4.184 1.959l-.407-.604-.418.598c-.319.457-1.363 2.011-1.363 2.798 0 .965.785 1.75 1.75 1.75S17 15.715 17 14.75c0-.782-1.004-2.334-1.312-2.791zM15.25 15.5a.752.752 0 0 1-.75-.75c0-.24.349-.92.766-1.591.4.67.734 1.349.734 1.591 0 .413-.337.75-.75.75z"/></svg>
